icons/evolvere-blue-folders-flat-vivid-dark-fallback/mimetypes/64/font-bdf.svg

<svg xmlns="http://www.w3.org/2000/svg" viewBox="0 0 64 64"><defs><linearGradient x1="48.918" y1="46.21" x2="32.67" y2="24" id="0" gradientUnits="userSpaceOnUse"><stop stop-color="#fff" stop-opacity=".53"/><stop offset="1" stop-color="#fff" stop-opacity="0"/></linearGradient></defs><path d="m4 0h60v62h-60z" fill="#c8d4dc"/><path d="m60 2v31l-24.322 29h28.322v-25-31l-4-4" fill="#222e33" fill-opacity=".122"/><path d="m0 2h60v31l-26 31h-34z" fill="url(#0)"/><path d="m0 2h60v31l-26 31h-34z" fill="#edf0f2" color="#000"/><path d="m34 64l26-31c-2.329 2.776-4.361 3-11 3h-12v15c0 6.644.044 9.37-3 13" fill="#cdd9df"/><g color="#000"><path d="m0 2v62h1 33v-1h-33v-61h-1" fill="#103e58" fill-opacity=".137"/><path d="m5.361 29.21h.443c.35 0 .689-.022 1.018-.066.339-.044.646-.137.919-.279.274-.142.509-.345.706-.607.208-.263.356-.613.443-1.051l3.431-16.186c.055-.219.104-.432.148-.64.044-.219.066-.372.066-.46 0-.241-.06-.438-.181-.591-.12-.153-.29-.268-.509-.345-.208-.088-.465-.142-.772-.164-.295-.033-.618-.049-.969-.049h-.427l.361-1.773h10.424c2.605 0 4.564.427 5.877 1.28 1.324.843 1.986 2.096 1.986 3.759 0 .919-.142 1.729-.427 2.43-.274.7-.657 1.308-1.149 1.822-.492.503-1.073.919-1.74 1.248-.668.328-1.39.58-2.167.755l-.033.131c.602.109 1.155.295 1.658.558.503.263.936.602 1.297 1.018.361.405.64.886.837 1.445.208.558.312 1.187.312 1.888 0 1.226-.208 2.315-.624 3.267-.416.952-1.029 1.757-1.839 2.413-.81.646-1.822 1.138-3.037 1.477-1.204.339-2.599.509-4.186.509h-12.23l.361-1.789m8.438-.263h2.331c.952 0 1.756-.126 2.413-.378.668-.252 1.209-.624 1.625-1.116.416-.492.717-1.1.903-1.822.197-.733.295-1.576.295-2.528 0-1.226-.279-2.134-.837-2.725-.558-.602-1.423-.903-2.594-.903h-2.118l-2.02 9.472m2.462-11.557h1.888c1.587 0 2.73-.41 3.431-1.231.711-.832 1.067-2.01 1.067-3.546 0-1.193-.268-2.085-.804-2.676-.536-.591-1.319-.886-2.347-.886h-1.494l-1.74 8.339" fill="#6d808c"/></g></svg>

<?xml version="1.0" encoding="UTF-8" standalone="no"?>
<svg
   xmlns:dc="http://purl.org/dc/elements/1.1/"
   xmlns:cc="http://creativecommons.org/ns#"
   xmlns:rdf="http://www.w3.org/1999/02/22-rdf-syntax-ns#"
   xmlns:svg="http://www.w3.org/2000/svg"
   xmlns="http://www.w3.org/2000/svg"
   xmlns:sodipodi="http://sodipodi.sourceforge.net/DTD/sodipodi-0.dtd"
   xmlns:inkscape="http://www.inkscape.org/namespaces/inkscape"
   viewBox="0 0 64 64"
   id="svg2"
   version="1.1"
   inkscape:version="0.48.4 r9939"
   width="100%"
   height="100%"
   sodipodi:docname="font-bdf.svg">
  <metadata
     id="metadata29">
    <rdf:RDF>
      <cc:Work
         rdf:about="">
        <dc:format>image/svg+xml</dc:format>
        <dc:type
           rdf:resource="http://purl.org/dc/dcmitype/StillImage" />
      </cc:Work>
    </rdf:RDF>
  </metadata>
  <sodipodi:namedview
     pagecolor="#ffffff"
     bordercolor="#666666"
     borderopacity="1"
     objecttolerance="10"
     gridtolerance="10"
     guidetolerance="10"
     inkscape:pageopacity="0"
     inkscape:pageshadow="2"
     inkscape:window-width="1920"
     inkscape:window-height="1016"
     id="namedview27"
     showgrid="false"
     inkscape:zoom="11.609375"
     inkscape:cx="32"
     inkscape:cy="32"
     inkscape:window-x="-5"
     inkscape:window-y="27"
     inkscape:window-maximized="1"
     inkscape:current-layer="svg2" />
  <defs
     id="defs4">
    <linearGradient
       x1="48.918"
       y1="46.21"
       x2="32.67"
       y2="24"
       id="0"
       gradientUnits="userSpaceOnUse">
      <stop
         stop-color="#fff"
         stop-opacity=".53"
         id="stop7" />
      <stop
         offset="1"
         stop-color="#fff"
         stop-opacity="0"
         id="stop9" />
    </linearGradient>
  </defs>
  <path
     d="m4 0h60v62h-60z"
     fill="#c8d4dc"
     id="path11" />
  <path
     d="m60 2v31l-24.322 29h28.322v-25-31l-4-4"
     fill="#222e33"
     fill-opacity=".122"
     id="path13" />
  <path
     d="m0 2h60v31l-26 31h-34z"
     fill="url(#0)"
     id="path15" />
  <path
     d="m0 2h60v31l-26 31h-34z"
     fill="#edf0f2"
     color="#000"
     id="path17" />
  <path
     d="m34 64l26-31c-2.329 2.776-4.361 3-11 3h-12v15c0 6.644.044 9.37-3 13"
     fill="#cdd9df"
     id="path19" />
  <path
     style="color:#000000;fill:#103e58;fill-opacity:0.13699999"
     inkscape:connector-curvature="0"
     id="path23"
     d="M 0,2 V 64 H 1 34 V 63 H 1 V 2 H 0" />
  <path
     style="color:#000000;fill:#6d808c"
     inkscape:connector-curvature="0"
     id="path25"
     d="m 5.361,29.21 h 0.443 c 0.35,0 0.689,-0.022 1.018,-0.066 C 7.161,29.1 7.468,29.007 7.741,28.865 8.015,28.723 8.25,28.52 8.447,28.258 8.655,27.995 8.803,27.645 8.89,27.207 l 3.431,-16.186 c 0.055,-0.219 0.104,-0.432 0.148,-0.64 0.044,-0.219 0.066,-0.372 0.066,-0.46 0,-0.241 -0.06,-0.438 -0.181,-0.591 C 12.234,9.177 12.064,9.062 11.845,8.985 11.637,8.897 11.38,8.843 11.073,8.821 10.778,8.788 10.455,8.772 10.104,8.772 H 9.677 l 0.361,-1.773 h 10.424 c 2.605,0 4.564,0.427 5.877,1.28 1.324,0.843 1.986,2.096 1.986,3.759 0,0.919 -0.142,1.729 -0.427,2.43 -0.274,0.7 -0.657,1.308 -1.149,1.822 -0.492,0.503 -1.073,0.919 -1.74,1.248 -0.668,0.328 -1.39,0.58 -2.167,0.755 l -0.033,0.131 c 0.602,0.109 1.155,0.295 1.658,0.558 0.503,0.263 0.936,0.602 1.297,1.018 0.361,0.405 0.64,0.886 0.837,1.445 0.208,0.558 0.312,1.187 0.312,1.888 0,1.226 -0.208,2.315 -0.624,3.267 -0.416,0.952 -1.029,1.757 -1.839,2.413 -0.81,0.646 -1.822,1.138 -3.037,1.477 -1.204,0.339 -2.599,0.509 -4.186,0.509 H 4.997 L 5.358,29.21 m 8.438,-0.263 h 2.331 c 0.952,0 1.756,-0.126 2.413,-0.378 0.668,-0.252 1.209,-0.624 1.625,-1.116 0.416,-0.492 0.717,-1.1 0.903,-1.822 0.197,-0.733 0.295,-1.576 0.295,-2.528 0,-1.226 -0.279,-2.134 -0.837,-2.725 -0.558,-0.602 -1.423,-0.903 -2.594,-0.903 h -2.118 l -2.02,9.472 M 16.256,17.39 h 1.888 c 1.587,0 2.73,-0.41 3.431,-1.231 0.711,-0.832 1.067,-2.01 1.067,-3.546 0,-1.193 -0.268,-2.085 -0.804,-2.676 C 21.302,9.346 20.519,9.051 19.491,9.051 h -1.494 l -1.74,8.339" />
</svg>
